X:1
T:Hark, the Glad Sound! The Savior Comes
T:Text: Philip Doddridge, 1735; based on Isaiah 61:1-2 Tune: Thomas Haweis, 1792; adapt. Samuel Webbe, 1808
T:CM RICHMOND www.hymnary.org/text/hark_the_glad_sound_the_savior_comes
T:Hark, the Glad Sound! The Savior Comes
T:This hymn is in the public domain. You may freely use this score for personal and congregational worship. If you reproduce the score, please credit Hymnary.org as the source. 
T:This hymn is in the public domain. You may freely use this score for personal and congregational worship. If you reproduce the score, please credit Hymnary.org as the source. 
Z:This hymn is in the public domain. You may freely use this score for personal and congregational worship. If you reproduce the score, please credit Hymnary.org as the source.
%%score ( 1 2 ) ( 3 4 )
L:1/8
M:3/4
K:F
V:1 treble nm="SOPRANO ALTO" snm="S. A."
V:2 treble 
V:3 bass nm="TENOR BASS" snm="T. B."
V:4 bass 
V:1
"^1""^2""^3""^4" C2 F2 A2 | c4 B2 | (A2 B2) G2 | F4 A2 | (G2 c2) F2 | (E2 F2) D2 | C4 G2 | %7
w: Hark, the glad|sound! The|Sav- * ior|comes, the|Sav- * ior|prom- * ised|long! Let|
w: He comes the|pris- oners|to * re-|lease, in|Sa- * tan's|bond- * age|held; the|
w: He comes the|bro- ken|heart * to|bind, the|wound- * ed|soul * to|cure, and|
w: Our glad ho-|san- nas,|Prince _ of|Peace, your|wel- * come|shall * pro-|claim; and|
 (A2 G2) F2 | (B2 A2) G2 |1 (c2 B2) A2 | d4 F2 | (D2 B2) A2 | (AG F2) E2 | F6 |] %14
w: ev- * ery|heart * pre-|pare * a|throne, and|ev- * ery|voice * * a|song.|
w: gates * of|brass * be-|fore * him|burst, the|i- * ron|fet- * * ters|yield.|
w: with * the|trea- * sures|of * his|grace to\_en-|rich * the|hum- * * bled|poor.|
w: heaven's _ e-|ter- * nal|arch- * es|ring with|your * be-|lov- * * ed|name.|
V:2
 A,2 C2 F2 | (G2 E2) D2 | (C2 D2) B,2 | A,4 =B,2 | C4 D2 | C4 =B,2 | C4 C2 | C4 D2 | B,4 CD |1 %9
 _E4 E2 | D4 F2 | (D2 E2) F2 | (D2 C2) C2 | C6 |] %14
V:3
 F,2 A,2 C2 | C4 F,G, | A,2 F,2 E,2 | F,4 F,2 | G,4 A,2 | G,4 F,2 | E,4 E,2 | (G,2 F,2) F,2 | %8
 (G,2 F,2) E,2 |1 (F,2 G,2) A,2 | B,4 C2 | B,4 C2 | (B,2 A,2) G,2 | A,6 |] %14
V:4
 F,2 F,2 F,2 | (E,2 C,2) D,E, | F,2 B,,2 C,2 | F,,4 D,2 | E,4 F,2 | G,4 G,,2 | C,4 B,,2 | %7
 A,,4 F,2 | G,,4 B,,2 |1 (A,,2 G,,2) F,,2 | B,,4 A,,2 | (A,,2 G,,2) F,,2 | (B,,2 C,2) C,2 | F,,6 |] %14

